X:1
T:Ave Maria, Mater Dei - Cornysh
T:James Gibb editions
T:#
%%score [ 1 { 2 | 3 } 4 ]
L:1/8
Q:1/4=90
M:2/2
K:C
V:1 treble nm="Alto" snm="A"
V:2 treble-8 nm="Tenor I" snm="T"
V:3 treble-8 
V:4 bass nm="Bass" snm="B"
V:1
 D4 A4- |[M:3/2] A2 G2 (F3"^Ave Maria Mater Dei" E/D/ F2 E2) |[M:2/2] (E4 A4) x2 || z2 F4 F2 | %4
w: A- ve|* Ma- ri\- * * * *|a, *|ma- ter|
 E4 D2 F2- | F2 (E3 D C2 | B,A, B,2) A,4 | z2 A2"^William Cornysh\n(1465-1523)" G4 | %8
w: De- i, re\-|* gi\- * *|* * * na|cae- li|
[M:4/4] F4 (E2 G2 | F F2 E/D/ C2 D2- | D E2 G FD F2 | E2 A3 G F2 | E2 A2 GGAG | A4 z2 A2-) | %14
w: do- mi\- *||||||
 (AG/A/ GE GF/G/ FE/D/ | CD E2 F3 E/F/ | EDD E2 DEC) | D4 z4 | z8 | z8 | z8 | z8 | z8 | z8 | z8 | %25
w: |||na,||||||||
 z8 | z8 | z2 D4 D2 | F2 D2 (A3- A | AG FE/D/ C2 D2 |[M:3/2] E3 F/G/ A3 A2 G F2) |[M:2/2] E8 x2 || %32
w: ||mi- se-|re- re me\- *|||i|
[M:2/2] z8 | z8 | z8 | z8 | z2 ^C2 C3 C | F2 E2 A4- | A2 A2 G3 G | (F>E D3 ^C/B,/ C2 | %40
w: ||||et ne per-|mit- tas nos|* mor- ta- li-|ter * * * * *|
 D2 F2 E2 z E | GF>E D2 C/B,/ C2 | D2) F2 (ED D2- | DC/B,/ C2) D4- | D4 z4 | z8 | z8 | z8 | z8 | %49
w: ||* pec- ca- * *|* * * * re||||||
 z4 z2 (D2- | F2 E4 E2) | (ED/C/ F2 E2 A2 | GGAG A4 | z2 D2 G3 E | FG A2 G G2 D | F2 E3 DCB, | %56
w: A\-|||||||
 A,2 E2 F[Q:1/4=89] A2[Q:1/4=87] G | %57
w: |
[Q:1/4=86] F[Q:1/4=85]E[Q:1/4=84] D2[Q:1/4=83] C[Q:1/4=82]C[Q:1/4=81]D[Q:1/4=80]C) | %58
w: |
[Q:1/4=80] D12 |] %59
w: men.|
V:2
 (d4 f4) |[M:2/2] e2 e2 (A2 d4 x2 |[M:2/2] e2) ^c8 || d6 d2 | c4 d4 | A2 (c3 B A2 | GF G2) A2 d2- | %7
w: A\- *|ve Ma- ri\- *|* a,|ma- ter|De- i,|re- gi\- * *|* * * na cae\-|
 d2 A2 (B2 c2) |[M:4/4][K:treble-8] (d2 (AB c3 B | A2 FG A2 z D | AB c2 d2 AB | c3 A c2 d2 | %12
w: * li do\- *|* mi\- * * *||||
 c c2 A c B3 | A3 d2 cAB) | c3 G _B2 A2 | AG/F/ EG FD D2 | z dAB GA G2 | B2 A2) A4- | A4 z4 | z8 | %20
w: |||||* * na,|||
 z8 | z8 | z8 | z8 | z8 | z8 | z8 | z4 z2 D2- | D2 D2 F2 D2 | (A3 A2 GFE |[M:4/4] D2 A4 d4 x2 | %31
w: |||||||mi\-|* se- re- re|me\- * * * *||
[M:4/4] AB) c8 ||[M:2/2][K:treble-8] z2 A4 A2 | A2 B2 c3 c | d2 f3 f (ef | d2 e c2 B/A/ B2 | %36
w: * * i|et to-|ti- us po- pu-|li Chri- sti- a\- *||
 A3 G F2 E2) | A4 z2 A2 | A3 A c2 c2 | d2 (f2 e3) e | d2 z (A2 E A2 | B2 c2 A4) | z2 D2 (G4 | %43
w: |ni; et|ne per- mit- tas|nos mor\- * ta-|li- ter * *||pec- ca\-|
 E4) D4 | z2 A4 A2 | c2 c2 f3 f | e2 d2 c2 B2 | A2 z2 d2 c2 | (f3 e/f/ ed d2 | dc/B/ c2 d4) | %50
w: * re|sed tu-|am san- ctis- si-|mam vo- lun- ta-|tem ad- im-|ple\- * * * * *||
 (c4 B4) | z2 A2 c3 B/A/ | e4 c2 A2 | d4 G4 | z2 c2 e2 d2 | d2 e2 c4 | c4 z2 c2 | A2 A3 G A2 | %58
w: re. *|A\- * * *|||||||
 B2 A2 A8 |] %59
w: * * men.|
V:3
 A8 |[M:2/2] c4 F2 A6 |[M:2/2] A8 x2 || z8 | z8 | z8 | z6 D2 | F4 E4 |[M:4/4][K:treble-8] (D4 C4 | %9
w: A-|ve Ma- ri-|a,||||cae-|li do-|mi\- *|
 z2 D2 F3 E/D/ | FG E2 D4 | A4 z2 D2 | A4 E2 G2 | F2 D4 F2) | (C4 z2 D2 | F2 G2 A3 G/A/ | %16
w: |||||||
 G>D FG EF E2) | D4 z2 F2- | F2 F2 E2 E2 | D2 F4 E2 | (A3 G/F/ G2 A2- | AG/F/ E2 D2 z A- | %22
w: |na, mun\-|* di im- pe-|ra- trix in-|fer\- * * * *||
 AB c2 d A2 c- | cB/A/ B2 AF F2 | G2 F D2 F E2 | D2 z A GF FE/D/) | (FGED G>F E/D/E | %27
w: |||||
 D>E FG AB A2) | d4 z2 D2- | D2 D2 F2 D2 |[M:4/4] (A3 G FE D2 F4) |[M:4/4] G8 x2 || %32
w: |ni mi\-|* se- re- re|me\- * * * * *|i|
[M:2/2][K:treble-8] z8 | z8 | z8 | z8 | z8 | z8 | z8 | z4 z2 A2 | A3 A c2 c2 | d2 d2 e3 e | d4 B4 | %43
w: |||||||et|ne per- mit- tas|nos mor- ta- li-|ter sed|
 z4 z2 A2- | A2 F2 D2 D2 | G2 G2 A2 (A2 | A G3 A2) z (D | FG A2 B2 AA | AG/F/) A2 z2 D2 | %49
w: tu\-|* am san- ctis-|si- mam vo- lun\-|* * * ta\-||* * * tem ad-|
 G4 (B2 A2) | A4 z2 G2 | (A2 c3 B/A/ c2 | B4 A4 | BA d3 c/B/ c2 | d2 A2 B4 | A6 E2 | A3 G F2 E2 | %57
w: im- ple\- *|re. A\-|||||||
 D2 F2 E4) | D12 |] %59
w: |men.|
V:4
 D,8 |[M:3/2] C,4 D,6 C,2 |[M:2/2] A,,8 x2 || z2 D,4 D,2 | A,4 D,4 | z8 | z8 | z8 |[M:4/4] z8 | %9
w: A-|ve Ma- ri-|a,|ma- ter|De- i,|||||
 z8 | z8 | z8 | z8 | z8 | z8 | z8 | z8 | z2 D,4 D,2 | D,2 A,,2 C,4 | D,4 A,,2 (C,2- | %20
w: ||||||||mun- di|im- pe- ra-|trix in- fer\-|
 C,_B,,/A,,/ D,2 E,2 F,2 | F,E,/D,/ C,2 D,2 F,2- | F,G, E,2 D,2 A,2- | A,G,/F,/ G,2 A,4 | %24
w: ||||
 _B,2 A,3 G,/F,/ G,2 | F, D,2 F, E,D, D,2-) | (D,E,^C,D, E,>D, C,/_B,,/A,,) | D,8 | z2 D,4 D,2 | %29
w: |||ni|mi- se-|
 F,2 D,2 (A,3 G, |[M:3/2] F,E, D,6 D,4) |[M:2/2] C,8 x2 ||[M:2/2] F,6 D,2 | F,2 G,2 E,3 E, | %34
w: re- re me\- *||i|et to-|ti- us po- pu-|
 D,4 A,3 A, | (_B,2 A,3 G,/F,/ G,2) | A,4 z2 A,,2 | A,,3 A,, A,,2 A,,2 | D,2 F,2 E,3 E, | %39
w: li Chri- sti-|a\- * * * *|ni; et|ne per- mit- tas|nos mor- ta- li-|
 (D,4 A,4 | D,4) z4 | z8 | z8 | z4 z2 D,2- | D,2 D,2 F,2 F,2 | E,3 E, D,2 A,,2 | %46
w: ter *||||sed|* tu- am san-|ctis- si- mam vo-|
 C,2 _B,,2 A,,2 D,2- | D,2 F,2 (G,2 A,2 | D,3 A,, C,2 D,2 | E,4) D,4 | z2 (A,,2 E,4) | (A,,2 A,6 | %52
w: lun- ta- tem ad\-|* im- ple\- *||* re.|A\- *||
 E,4 z2 F,2 | D,4 E,4 | D,2 F,2 E,2 B,,2 | D,2 C,2 A,,4 | z2 A,,2 D,2 C,2 | D,4 A,,4) | D,12 |] %59
w: ||||||men.|

